X: 35002
T: Róise Bheag Róise Móire's
R: barndance
M: 4/4
K: Dmajor
FG|:A2A2 f2fe|de (3dcB A2BA|GFGA ~B2AF|GFGA BAFG|
A2A2 f2fe|de (3dcB A2BA|GFGA BABc|1 d2f2 d2FG:|2 d2f2 d2A2||
|:dcde f2A2|dcde f2A2|edef gABc|dcde f2A2|
dcde f2A2|dcde f2A2|edef gABc|1 d2f2 d2 (3ABc:|2 d2f2 d2FG||

